pk/detection.svg

<svg viewBox="0 0 48 48" fill="none" xmlns="http://www.w3.org/2000/svg" height="1em" width="1em">
  <path fill-rule="evenodd" clip-rule="evenodd" d="M6.45012 34.8494L10.4398 31.5017L10.9532 25.6319L18.9331 18.936L27.7107 11.5707L30.9026 8.8924C33.9875 6.30384 38.5867 6.70623 41.1753 9.79115C43.7638 12.8761 43.3615 17.4753 40.2765 20.0639L37.0847 22.7422L28.3071 30.1074L20.3272 36.8033L14.4598 36.2925L10.473 39.6379C9.14922 40.7487 7.17567 40.576 6.06492 39.2522C4.95548 37.9301 5.12794 35.9588 6.45012 34.8494Z" stroke="black" stroke-width="4" stroke-linejoin="round"/>
  <path d="M23.4365 9.71777L38.2075 27.3211" stroke="black" stroke-width="4" stroke-linecap="round"/>
  <path d="M18.5755 29.0002L24.3018 24.0002" stroke="black" stroke-width="4" stroke-linecap="round"/>
</svg>

<svg viewBox="0 0 48 48" fill="none" xmlns="http://www.w3.org/2000/svg" height="1em" width="1em">
  <path clip-rule="evenodd" d="m6.45 34.85 3.99-3.348.513-5.87 7.98-6.696 8.778-7.365 3.192-2.679a7.292 7.292 0 1 1 9.373 11.172l-3.191 2.678-8.778 7.365-7.98 6.696-5.867-.51-3.987 3.345a3.129 3.129 0 0 1-4.408-.386 3.125 3.125 0 0 1 .385-4.403Z" stroke="#000" stroke-width="4" stroke-linejoin="round"/>
  <path d="M23.436 9.718 38.209 27.32M18.576 29l5.726-5" stroke="#000" stroke-width="4" stroke-linecap="round"/>
</svg>
